X:8022
T:Harp That Once Through Tara's Halls, The
R:March
C:Tune Trad.
N:Words by Thomas Moore 1779-1852
O:Ireland
Z:Paul Hardy's Session Tunebook 2022 (see www.paulhardy.net). Creative Commons cc by-nc-sa licenced.
M:4/4
L:1/8
Q:1/4=110
K:G
G2|"G"d3 e d2 B2|"C"e2 f2 g3 e|"G"d3 B "D"A3 B|"G"G6 d2|"Em"g3 f g2 e2|"C"g2 f2 "D"e2 d2|"Em"e3 d g2 B2|"D"d6 d2||
"G"g3 f g2 ef|"C"g2 f2 e3 d|"Am"e2 d2 c2 B2|"Em"e6 f2|"G"g3 f e2 d2|"C"e2 f2 g2 e2|"G"d3 B "D7"A3 B|"G"G6|]

